style-guide/assets/xd-icons-trash.svg

<?xml version="1.0" encoding="UTF-8"?>
<svg width="24px" height="24px" viewBox="0 0 24 24" version="1.1" xmlns="http://www.w3.org/2000/svg" xmlns:xlink="http://www.w3.org/1999/xlink">
    <!-- Generator: Sketch 51.3 (57544) - http://www.bohemiancoding.com/sketch -->
    <title>trash</title>
    <desc>Created with Sketch.</desc>
    <defs>
        <path d="M16,19 C16.553,19 17,18.553 17,18 L17,11 C17,10.447 16.553,10 16,10 C15.447,10 15,10.447 15,11 L15,18 C15,18.553 15.447,19 16,19 M12,19 C12.553,19 13,18.553 13,18 L13,11 C13,10.447 12.553,10 12,10 C11.447,10 11,10.447 11,11 L11,18 C11,18.553 11.447,19 12,19 M8,19 C8.553,19 9,18.553 9,18 L9,11 C9,10.447 8.553,10 8,10 C7.447,10 7,10.447 7,11 L7,18 C7,18.553 7.447,19 8,19 M7,2 L17,2 C17.553,2 18,1.553 18,1 C18,0.447 17.553,0 17,0 L7,0 C6.447,0 6,0.447 6,1 C6,1.553 6.447,2 7,2 M5,22 L19,22 L19,7 L5,7 L5,22 Z M22,5 L2,5 C1.447,5 1,5.447 1,6 C1,6.553 1.447,7 2,7 L3,7 L3,23 C3,23.553 3.447,24 4,24 L20,24 C20.553,24 21,23.553 21,23 L21,7 L22,7 C22.553,7 23,6.553 23,6 C23,5.447 22.553,5 22,5 Z" id="path-1"></path>
    </defs>
    <g id="trash" stroke="none" stroke-width="1" fill="none" fill-rule="evenodd">
        <mask id="mask-2" fill="white">
            <use xlink:href="#path-1"></use>
        </mask>
        <use id="icons/24px/Trash" fill="#000000" xlink:href="#path-1"></use>
    </g>
</svg>

<svg viewBox="0 0 24 24" xmlns="http://www.w3.org/2000/svg">
    <path d="M16 19a1 1 0 0 0 1-1v-7a1 1 0 1 0-2 0v7a1 1 0 0 0 1 1m-4 0a1 1 0 0 0 1-1v-7a1 1 0 1 0-2 0v7a1 1 0 0 0 1 1m-4 0a1 1 0 0 0 1-1v-7a1 1 0 1 0-2 0v7a1 1 0 0 0 1 1M7 2h10a1 1 0 1 0 0-2H7a1 1 0 1 0 0 2M5 22h14V7H5v15zM22 5H2a1 1 0 1 0 0 2h1v16a1 1 0 0 0 1 1h16a1 1 0 0 0 1-1V7h1a1 1 0 1 0 0-2z"/>
</svg>
